ui_kit/lib/assets/icons/mic.svg

<svg width="24" height="24" viewBox="0 0 24 24" fill="none" xmlns="http://www.w3.org/2000/svg">
<path d="M12.9757 11.1411C12.7825 10.9509 12.5223 10.8444 12.2513 10.8444C11.9795 10.8444 11.7186 10.9515 11.5253 11.1425L11.5225 11.1453C11.3782 11.2895 11.2798 11.4733 11.2399 11.6733C11.2 11.8734 11.2204 12.0808 11.2984 12.2693C11.3764 12.4579 11.5086 12.619 11.6782 12.7324C11.8478 12.8457 12.0472 12.9062 12.2513 12.9062C12.4553 12.9062 12.6547 12.8457 12.8243 12.7324C12.9939 12.619 13.1261 12.4579 13.2041 12.2693C13.2821 12.0808 13.3025 11.8734 13.2626 11.6733C13.2229 11.4742 13.1253 11.2912 12.982 11.1473L12.98 11.1453L12.9757 11.1411Z" fill="#F5F9FF" fill-opacity="0.95"/>
<path fill-rule="evenodd" clip-rule="evenodd" d="M14.7062 3.16931C15.2749 2.93375 15.8844 2.8125 16.5 2.8125C17.1156 2.8125 17.7251 2.93375 18.2938 3.16931C18.8625 3.40488 19.3793 3.75016 19.8146 4.18544C20.2498 4.62071 20.5951 5.13746 20.8307 5.70617C21.0663 6.27489 21.1875 6.88443 21.1875 7.5C21.1875 8.11557 21.0663 8.72511 20.8307 9.29383C20.6915 9.6299 20.514 9.94782 20.3022 10.2415L20.6101 10.5494C20.903 10.8423 20.903 11.3172 20.6101 11.6101C20.3172 11.903 19.8423 11.903 19.5494 11.6101L19.2416 11.3022C18.9479 11.5139 18.6299 11.6915 18.2938 11.8307C17.7971 12.0364 17.2693 12.155 16.7334 12.1817L8.95375 18.6374C8.59392 18.9272 8.13972 19.0739 7.67834 19.0495C7.24105 19.0263 6.82646 18.8509 6.5058 18.5549L4.09283 20.9678C3.79994 21.2607 3.32506 21.2607 3.03217 20.9678C2.73928 20.675 2.73928 20.2001 3.03217 19.9072L5.44371 17.4957C5.14857 17.1752 4.97368 16.7613 4.95054 16.3247C4.92608 15.8633 5.07284 15.4091 5.36264 15.0493L5.36944 15.0409L11.8183 7.26668C11.845 6.73082 11.9636 6.20292 12.1693 5.70617C12.3085 5.37009 12.4861 5.05215 12.6978 4.75845L12.3899 4.45056C12.097 4.15766 12.097 3.68279 12.3899 3.3899C12.6828 3.097 13.1577 3.097 13.4506 3.3899L13.7585 3.6978C14.0522 3.48604 14.3701 3.30852 14.7062 3.16931ZM12.1419 9.22608L6.52838 15.9933C6.47206 16.0648 6.44361 16.1543 6.44843 16.2453C6.45331 16.3373 6.49185 16.4242 6.5567 16.4896L7.51275 17.4426C7.57818 17.5079 7.66546 17.5467 7.75773 17.5516C7.84867 17.5564 7.93821 17.528 8.00967 17.4717L14.7743 11.8583C14.7515 11.8493 14.7288 11.8401 14.7062 11.8307C14.1375 11.5951 13.6207 11.2498 13.1854 10.8146C12.7502 10.3793 12.4049 9.86254 12.1693 9.29383C12.16 9.27131 12.1508 9.24873 12.1419 9.22608ZM19.4449 8.7198C19.3816 8.87255 19.3067 9.01979 19.221 9.16027L14.8397 4.77904C14.9802 4.69331 15.1274 4.6184 15.2802 4.55513C15.6669 4.39495 16.0814 4.3125 16.5 4.3125C16.9186 4.3125 17.3331 4.39495 17.7198 4.55513C18.1065 4.71532 18.4579 4.95011 18.7539 5.2461C19.0499 5.54208 19.2847 5.89347 19.4449 6.2802C19.6051 6.66692 19.6875 7.08141 19.6875 7.5C19.6875 7.91859 19.6051 8.33308 19.4449 8.7198ZM13.5551 6.2802C13.6184 6.12743 13.6933 5.98019 13.7791 5.83969L18.1603 10.2209C18.0198 10.3067 17.8726 10.3816 17.7198 10.4449C17.3331 10.6051 16.9186 10.6875 16.5 10.6875C16.0814 10.6875 15.6669 10.6051 15.2802 10.4449C14.8935 10.2847 14.5421 10.0499 14.2461 9.7539C13.9501 9.45792 13.7153 9.10653 13.5551 8.7198C13.3949 8.33308 13.3125 7.91859 13.3125 7.5C13.3125 7.08141 13.3949 6.66692 13.5551 6.2802Z" fill="#F5F9FF" fill-opacity="0.95"/>
</svg>

<svg xmlns="http://www.w3.org/2000/svg" width="24" height="24" fill="none" viewBox="0 0 24 24"><path fill="#F5F9FF" fill-opacity=".95" d="M12.976 11.141a1.033 1.033 0 0 0-1.45.002l-.003.002a1.032 1.032 0 1 0 1.459.002l-.002-.002-.004-.004Z"/><path fill="#F5F9FF" fill-opacity=".95" fill-rule="evenodd" d="M14.706 3.17a4.687 4.687 0 0 1 5.596 7.072l.308.307a.75.75 0 0 1-1.06 1.061l-.308-.308a4.69 4.69 0 0 1-2.509.88l-7.78 6.455a1.875 1.875 0 0 1-2.447-.082l-2.413 2.413a.75.75 0 0 1-1.06-1.06l2.41-2.412a1.875 1.875 0 0 1-.08-2.447l.006-.008 6.45-7.774a4.689 4.689 0 0 1 .879-2.509l-.308-.307a.75.75 0 1 1 1.06-1.061l.309.308c.293-.212.611-.39.947-.529Zm-2.564 6.056-5.614 6.767a.375.375 0 0 0 .029.497l.956.953a.375.375 0 0 0 .497.029l6.764-5.614a4.69 4.69 0 0 1-2.632-2.632Zm7.303-.506c-.063.153-.138.3-.224.44L14.84 4.78a3.185 3.185 0 0 1 3.914.467 3.187 3.187 0 0 1 .69 3.474Zm-5.89-2.44c.063-.153.138-.3.224-.44l4.381 4.38a3.18 3.18 0 0 1-2.88.225 3.188 3.188 0 0 1-1.725-4.165Z" clip-rule="evenodd"/></svg>
